plugins/nintendo-ds/src/icons/screen-layout-left-right-symbolic.svg

<?xml version="1.0" encoding="UTF-8" standalone="no"?>
<svg
   xmlns:dc="http://purl.org/dc/elements/1.1/"
   xmlns:cc="http://creativecommons.org/ns#"
   xmlns:rdf="http://www.w3.org/1999/02/22-rdf-syntax-ns#"
   xmlns:svg="http://www.w3.org/2000/svg"
   xmlns="http://www.w3.org/2000/svg"
   xmlns:sodipodi="http://sodipodi.sourceforge.net/DTD/sodipodi-0.dtd"
   xmlns:inkscape="http://www.inkscape.org/namespaces/inkscape"
   width="16"
   height="16"
   version="1.1"
   id="svg8"
   sodipodi:docname="ds-touchscreen-right.svg"
   inkscape:version="0.92.2 2405546, 2018-03-11">
  <metadata
     id="metadata14">
    <rdf:RDF>
      <cc:Work
         rdf:about="">
        <dc:format>image/svg+xml</dc:format>
        <dc:type
           rdf:resource="http://purl.org/dc/dcmitype/StillImage" />
        <dc:title></dc:title>
      </cc:Work>
    </rdf:RDF>
  </metadata>
  <defs
     id="defs12" />
  <sodipodi:namedview
     pagecolor="#ffffff"
     bordercolor="#666666"
     borderopacity="1"
     objecttolerance="10"
     gridtolerance="10"
     guidetolerance="10"
     inkscape:pageopacity="0"
     inkscape:pageshadow="2"
     inkscape:window-width="2560"
     inkscape:window-height="1376"
     id="namedview10"
     showgrid="true"
     inkscape:zoom="64"
     inkscape:cx="3.6767386"
     inkscape:cy="8.1664307"
     inkscape:window-x="0"
     inkscape:window-y="27"
     inkscape:window-maximized="1"
     inkscape:current-layer="svg8">
    <inkscape:grid
       type="xygrid"
       id="grid4526" />
  </sodipodi:namedview>
  <g
     id="g873">
    <rect
       y="5.5"
       x="7.5"
       height="6"
       width="6"
       id="rect869"
       style="opacity:0.5;fill:#474747;fill-opacity:1;stroke:none;stroke-width:1.2544198;stroke-miterlimit:4;stroke-dasharray:none;stroke-opacity:1" />
    <path
       sodipodi:nodetypes="ssssssssscccccccccc"
       inkscape:connector-curvature="0"
       id="path4659-5"
       d="M 15,6 C 15,5.057191 13.942809,4 13,4 H 2 C 1.057191,4 0,5.057191 0,6 v 5 c 0,0.942809 1.057191,2 2,2 h 11 c 0.942809,0 2,-1.057191 2,-2 z m -2,0 v 5 H 8 V 6 Z M 7,6 v 5 H 2 V 6 Z"
       style="fill:#474747;fill-opacity:1;stroke:none;stroke-width:1px;stroke-linecap:butt;stroke-linejoin:miter;stroke-opacity:1" />
  </g>
</svg>

<svg width="16" height="16" version="1.1" xmlns="http://www.w3.org/2000/svg">
  <g fill="#474747">
    <rect x="7.5" y="5.5" width="6" height="6" opacity=".5"/>
    <path d="m15 6c0-0.94281-1.0572-2-2-2h-11c-0.94281 0-2 1.0572-2 2v5c0 0.94281 1.0572 2 2 2h11c0.94281 0 2-1.0572 2-2zm-2 0v5h-5v-5zm-6 0v5h-5v-5z"/>
  </g>
</svg>
